Catalina-light/actions/16/node-break.svg

<svg xmlns="http://www.w3.org/2000/svg" width="16" height="16" viewBox="0 0 16 16">
 <defs>
  <style id="current-color-scheme" type="text/css">
   .ColorScheme-Text { color:#5c616c; } .ColorScheme-Highlight { color:#5294e2; }
  </style>
 </defs>
 <path style="fill:currentColor" class="ColorScheme-Text" d="M 5 0 L 5 1.9726562 L 0.52148438 1.9726562 A 0.50005 0.50005 0 1 0 0.52148438 2.9726562 L 5 2.9726562 L 5 5 L 10 5 L 10 2.9726562 L 14.498047 2.9726562 A 0.50005 0.50005 0 1 0 14.498047 1.9726562 L 10 1.9726562 L 10 0 L 5 0 z M 7 5.0273438 L 7 7.0273438 L 5 7.0273438 L 7.5 10.027344 L 10 7.0273438 L 8 7.0273438 L 8 5.0273438 L 7 5.0273438 z M 1 11 L 1 13 L 0.50390625 13 A 0.499025 0.499025 0 1 0 0.50390625 13.998047 L 1 13.998047 L 1 16 L 5 16 L 5 11 L 1 11 z M 10 11 L 10 16 L 14 16 L 14 14 L 14.507812 14 A 0.50005 0.50005 0 1 0 14.507812 13 L 14 13 L 14 11 L 10 11 z"/>
</svg>

<svg width="16" height="16" viewBox="0 0 16 16" xmlns="http://www.w3.org/2000/svg">
<defs>
<style id="current-color-scheme" type="text/css">.ColorScheme-Text { color:#5c616c; } .ColorScheme-Highlight { color:#5294e2; }</style>
</defs>
<path class="ColorScheme-Text" d="m5 0v1.9727h-4.4785a0.50005 0.50005 0 1 0 0 1h4.4785v2.0273h5v-2.0273h4.498a0.50005 0.50005 0 1 0 0-1h-4.498v-1.9727h-5zm2 5.0273v2h-2l2.5 3 2.5-3h-2v-2h-1zm-6 5.9727v2h-0.49609a0.49902 0.49902 0 1 0 0 0.99805h0.49609v2.002h4v-5h-4zm9 0v5h4v-2h0.50781a0.50005 0.50005 0 1 0 0-1h-0.50781v-2h-4z" fill="#363636"/>
</svg>
